X: 90
T:Trick Or Treat
% Nottingham Music Database
S:Chris Dewhurst 1984, via PR
M:4/4
L:1/4
K:G
d/2c/2|"G"B/2d/2G/2B/2 "D"A/2c/2F/2A/2|"G"G/2gf/2 gd/2g/2|\
"C"e/2d/2c/2B/2 "Am"A/2G/2F/2E/2|"D"Dd d/2e/2d/2c/2|
"G"B/2d/2G/2B/2 "D""a"A/2c/2F/2A/2|"G""b"G/2g/2f/2g/2 "Em"d/2G/2B/2d/2|\
"Am"c/2B/2A/2G/2 "D"F/2D/2E/2F/2|"G"GB G::
d/2c/2|"G"B/2g/2f/2g/2 d/2g/2B/2g/2|"C"c/2g/2f/2g/2 e/2g/2c/2g/2|\
"G"B/2g/2f/2g/2 d/2g/2d/2B/2|"D"cA Ad/2c/2|
"G"B/2g/2f/2g/2 d/2g/2B/2g/2|"C"c/2g/2f/2g/2 e/2g/2c/2g/2|\
"G""b"B/2g/2d/2B/2 "D"c/2A/2F/2A/2|"G"GB G:|


